pyjamzz_client/src/assets/icons/hamburger-icon.svg

<svg xmlns="http://www.w3.org/2000/svg"><path d="m20 29.000046h60.000231s14.498608-.182694 14.532756 37.711285c.010155 11.269342-3.566906 14.958915-9.273814 14.957666-5.706912-.001246-10.258962-6.669055-10.258962-6.669055l-50.00019-49.999884"/><path d="m20 50h60"/><path d="m20 70.999954h60.000231s14.498608.182694 14.532756-37.711285c.010155-11.269342-3.566906-14.958915-9.273814-14.957666-5.706912.001246-10.258962 6.669055-10.258962 6.669055l-50.00019 49.999884"/></svg>

<?xml version="1.0" encoding="utf-8"?>

<svg xmlns="http://www.w3.org/2000/svg" fill="#000000"  >
    <path class="line line1" d="M 20,29.000046 H 80.000231 C 80.000231,29.000046 94.498839,28.817352 94.532987,66.711331 94.543142,77.980673 90.966081,81.670246 85.259173,81.668997 79.552261,81.667751 75.000211,74.999942 75.000211,74.999942 L 25.000021,25.000058" />
    <path class="line line2" d="M 20,50 H 80" />
    <path class="line line3" d="M 20,70.999954 H 80.000231 C 80.000231,70.999954 94.498839,71.182648 94.532987,33.288669 94.543142,22.019327 90.966081,18.329754 85.259173,18.331003 79.552261,18.332249 75.000211,25.000058 75.000211,25.000058 L 25.000021,74.999942" />
</svg>
